docs/img/about/gg.svg

<svg width="41" height="26" viewBox="0 0 41 26" fill="none" xmlns="http://www.w3.org/2000/svg">
<path d="M39.502 10.3476H36.9571V7.83294C36.9571 7.30971 36.5224 6.88019 35.9928 6.88019H32.5627C32.0332 6.88019 31.5985 7.30971 31.5985 7.83294V10.3476H29.0536C28.524 10.3476 28.0894 10.7771 28.0894 11.3003V14.6896C28.0894 15.2129 28.524 15.6424 29.0536 15.6424H31.5985V18.157C31.5985 18.6803 32.0332 19.1098 32.5627 19.1098H35.9928C36.5224 19.1098 36.9571 18.6803 36.9571 18.157V15.6424H39.502C40.0315 15.6424 40.4662 15.2129 40.4662 14.6896V11.3003C40.4662 10.7771 40.0315 10.3476 39.502 10.3476Z" fill="#D7143A"/>
<path d="M13.0885 6.19289C14.2582 6.19289 15.3805 6.50527 16.3368 7.09098L17.4275 7.83288C17.8069 8.09059 18.3206 8.04373 18.6525 7.72355L21.8455 4.59977C22.051 4.39672 22.1538 4.12339 22.1301 3.83444C22.1064 3.5533 21.9562 3.29559 21.7191 3.13159L19.8618 1.87427C19.8223 1.85084 19.7827 1.82741 19.7432 1.80398L17.9412 0.944943C17.9175 0.937134 17.8938 0.921515 17.8701 0.913706C16.321 0.304568 14.6929 0 13.0253 0C9.58724 0 6.34681 1.30418 3.89673 3.67044C1.40713 6.07575 0.0240208 9.3401 0.000310323 12.87C-0.0234001 16.3998 1.31229 19.6876 3.77027 22.1242C6.20455 24.5451 9.66627 25.9274 13.2545 25.9274C16.811 25.9274 20.1384 24.5607 22.3988 22.1866C24.185 20.3046 25.2836 17.7899 25.576 14.916C25.576 14.8926 25.5839 14.8614 25.5839 14.838L25.6155 12.253C25.6155 12.1984 25.6155 12.1437 25.6076 12.0968L25.4653 11.2144C25.3942 10.7536 24.9911 10.41 24.5169 10.41H13.3809C12.8514 10.41 12.4167 10.8395 12.4167 11.3627V15.166C12.4167 15.6892 12.8514 16.1187 13.3809 16.1187H19.0556C18.7948 16.681 18.3838 17.2745 17.8701 17.829C16.7399 19.0394 15.0564 19.7267 13.2466 19.7267C11.3971 19.7267 9.62675 19.0082 8.39381 17.7665C5.81728 15.1738 5.84889 10.6521 8.45704 8.09059C9.67418 6.88793 11.3734 6.19289 13.0885 6.19289Z" fill="#D7143A"/>
</svg>

<svg width="41" height="26" fill="none" xmlns="http://www.w3.org/2000/svg"><path d="M39.502 10.348h-2.545V7.833a.962.962 0 0 0-.964-.953h-3.43c-.53 0-.965.43-.965.953v2.515h-2.544c-.53 0-.965.43-.965.952v3.39c0 .523.435.952.965.952h2.545v2.515c0 .523.434.953.964.953h3.43c.53 0 .964-.43.964-.953v-2.515h2.545c.53 0 .964-.43.964-.952V11.3a.962.962 0 0 0-.964-.952zM13.088 6.193c1.17 0 2.293.312 3.249.898l1.09.742a.98.98 0 0 0 1.226-.11L21.846 4.6a.954.954 0 0 0-.127-1.468l-1.857-1.258-.119-.07-1.802-.86c-.023-.007-.047-.022-.07-.03A13.173 13.173 0 0 0 13.024 0C9.587 0 6.347 1.304 3.897 3.67 1.407 6.076.024 9.34 0 12.87c-.023 3.53 1.312 6.818 3.77 9.254 2.435 2.421 5.896 3.803 9.485 3.803 3.556 0 6.883-1.366 9.144-3.74 1.786-1.882 2.885-4.397 3.177-7.271 0-.023.008-.055.008-.078l.032-2.585c0-.055 0-.11-.008-.156l-.143-.883a.957.957 0 0 0-.948-.804H13.38c-.53 0-.964.43-.964.953v3.803c0 .523.434.953.964.953h5.675c-.261.562-.672 1.155-1.186 1.71-1.13 1.21-2.814 1.898-4.623 1.898-1.85 0-3.62-.719-4.853-1.96-2.577-2.593-2.545-7.115.063-9.676a6.66 6.66 0 0 1 4.631-1.898z" fill="#D7143A"/></svg>
